X: 722
T: Welcome home
C: anon.
O: Ireland
B: Francis O'Neill: "The Dance Music of Ireland" (1907) no. 722
R: Reel
Z: Transcribed by Frank Nordberg - http://www.musicaviva.com
F: http://www.musicaviva.com/abc/tunes/ireland/oneill-1001/oneill-1001-072
2.abc
M: C|
L: 1/8
K: D
(AG)|FEFG AFD(c|BAG)B AGFD|FEFG A3(g|fd)ec dcAG|FEFG AFDc|BAGB AGFD|FEFG
A3(g|fd)ec d2||
(de)|fedf edce|dcAB cAGg|fedf edcA|Adce d2(de)|fedf edce|dcAB cAFE|FEFG A
3(g|fd)ec d2|]
W:
W:
W: From Musica Viva - http://www.musicaviva.com
W: the Internet center for free sheet music downloads.


